public/log.svg

<svg version="1.2" xmlns="http://www.w3.org/2000/svg" viewBox="0 0 340 340" width="340" height="340">
	<title>Screenshot 2024-07-06 at 11</title>
	<style>
		.s0 { opacity: 1;fill: #e7515a } 
	</style>
	<path id="Path 0" fill-rule="evenodd" class="s0" d="m169 7.1c0.8 0 3.8 1 6.5 2.2 2.8 1.2 14.5 7.8 26 14.6 11.6 6.8 25.1 14.7 30 17.6 4.9 2.9 11.3 6.5 14 8 2.8 1.5 6.9 4.1 9.3 5.6 2.3 1.6 4.4 2.9 4.7 2.9 0.3 0 5.8 3.1 12.3 6.9 6.4 3.7 15.5 9 20.2 11.7 4.7 2.7 10.2 6.5 12.4 8.4 2.1 1.9 4.5 5.1 5.3 7 1.3 2.9 1.6 13.9 2 68 0.3 37.2 0.1 68.3-0.4 73.5-0.6 4.9-1.7 10.6-2.6 12.5-1 1.9-2.8 4.9-4.2 6.5-1.4 1.6-13.5 9.6-26.8 17.7-13.3 8.1-31.6 19.2-40.7 24.6-9.1 5.5-23.2 13.8-31.5 18.6-8.2 4.8-19.2 10.8-24.4 13.4-5.4 2.7-10.7 4.7-12.5 4.6-2.2 0-11.3-4.9-29.8-16-14.7-8.7-33.9-20.1-42.5-25.2-8.7-5.1-21.2-12.6-27.8-16.7-6.6-4-15.4-9.3-19.5-11.6-4.1-2.3-9.4-5.6-11.8-7.3-2.5-1.9-4.8-4.6-5.7-6.9-1.2-3.1-1.6-14.9-2.1-70-0.3-36.4-0.2-70.3 0.2-75.2 0.7-8 1.1-9.5 3.9-13 1.7-2.2 5.3-5.7 8.1-7.7 2.7-2.1 10.5-7 17.3-11 6.8-4 32.3-19.2 56.5-33.7 24.3-14.5 45.9-27.2 48.1-28.2 2.2-1 4.7-1.8 5.5-1.8zm-21.5 27.6c-3.8 2.2-13.1 7.8-20.5 12.5-7.4 4.6-19.6 12-27 16.3-7.4 4.3-17.5 10.3-22.5 13.3-5 3.1-14.3 8.7-20.7 12.6-9.8 6-11.7 7.6-12.3 10.1-0.3 1.7-0.8 17.2-1.1 34.5-0.3 17.3-0.2 48.4 0.1 69l0.6 37.5c9.6 7.1 23.2 15.6 36.4 23.5 13.2 7.9 25.8 15.5 28 17 2.2 1.5 6 3.8 8.5 5.2 2.5 1.4 7.9 4.6 12 7 4.1 2.5 13.6 8.1 21 12.5 7.4 4.4 14.8 8.8 16.5 9.6 3 1.6 3.1 1.5 17.5-6.6 8-4.6 22.2-12.7 31.5-18.1 9.4-5.5 24.9-14.8 34.5-20.7 9.6-5.9 21.7-13.4 26.8-16.6 5.2-3.2 11.3-7.2 13.5-8.8 2.5-1.9 4.7-4.5 5.4-6.5 0.9-2.6 1.2-21.8 1.2-72.5l0.1-69c-15.9-9.5-25.1-15.1-30.7-18.4-5.7-3.4-10.5-6.1-10.8-6.1-0.3 0-6.8-3.8-14.5-8.5-7.7-4.7-14.2-8.5-14.5-8.5-0.3 0-6.5-3.4-13.7-7.6-7.3-4.2-16.9-9.8-21.3-12.5-4.4-2.6-8.3-4.8-8.7-4.9-0.5 0-3.3-1.6-6.3-3.5-3-1.9-6.1-3.7-6.8-4-0.7-0.3-4.4 1.4-8.2 3.8-3.9 2.4-10.2 6.2-14 8.4zm12.5 5.5c2.4 0.3 2.5 0.6 3.3 10.8 0.4 5.8 0.6 14.3 0.2 27.5l-4.8 3c-2.7 1.7-9.9 6.3-16 10.3-6.2 4-15 9.6-19.7 12.4-4.7 2.9-12.1 7.6-24.5 15.8l-10-5.2c-5.5-2.8-13.5-7.6-17.8-10.5-4.2-2.9-7.7-5.9-7.7-6.6-0.1-0.6 1.4-2.4 3.2-3.8 1.8-1.4 6.7-4.6 10.8-7.1 4.1-2.5 13.8-8 21.5-12.3 7.7-4.3 16.7-9.5 20-11.5 3.3-2.1 9.6-5.8 14-8.2 4.4-2.5 11.8-6.8 16.5-9.7 5.5-3.4 9.4-5.1 11-4.9zm-39 37.8c-14 8.4-26.2 15.5-27 15.8-0.8 0.3-3.3 1.7-5.5 3l-4 2.4c3.9 3 6.7 3.8 9 3.8 2.8 0 5.5-0.9 9-3.1 2.8-1.8 13.1-8.2 23-14.2 9.9-6.1 20.4-12.3 23.3-13.9l5.2-2.8c0-8.4-0.4-10-1.3-10-0.6 0-2.3 0.9-3.7 1.9-1.4 1-14 8.7-28 17.1zm57.3-38c1.2 0 6.5 2.4 11.7 5.2 5.2 2.9 18.1 10.3 28.5 16.6 10.4 6.3 24.4 14.5 31 18.2 6.6 3.6 13.8 7.7 16 9 2.2 1.2 5.5 3.4 7.3 4.9 1.8 1.4 3.3 3 3.2 3.6 0 0.6-2.9 2.8-6.3 4.9-3.4 2.2-9.3 5.7-13.2 7.9-3.9 2.1-8.1 4.9-9.5 6.2-1.4 1.4-3.2 2.5-4 2.5-0.8 0-3.7-1.5-6.5-3.4-2.7-1.8-8.1-5-12-7.1-3.9-2.1-11.7-6.8-17.5-10.5-5.8-3.7-14.1-8.6-18.5-10.8-4.4-2.2-9.2-5.2-13.5-9.2v-17.5c0-9.6 0.3-18.2 0.6-19 0.3-0.8 1.5-1.5 2.7-1.5zm9.7 27.5c0 2.1 1.7 3.5 11 9 6.1 3.6 11.2 6.5 11.5 6.5 0.3 0 4 2.4 8.3 5.2 4.3 2.9 12.2 7.5 17.5 10.3l9.6 5c4.3-3.3 5.7-5 5.9-5.9 0.1-1.1-2.4-2.8-9-5.9-5.1-2.4-14.5-7.5-20.8-11.4-6.3-3.8-16.3-9.5-22.2-12.6-8.3-4.3-10.9-5.2-11.3-4.1-0.3 0.8-0.5 2.5-0.5 3.9zm-17.5 23.8c2.2 0.3 6.9 2.1 10.5 4.2 3.6 2.1 7.8 4.5 9.5 5.5 1.7 0.9 6.8 4.1 11.5 7 4.7 2.9 11.4 6.9 15 8.8 3.6 1.9 8.3 4.7 10.5 6.2 2.2 1.5 5.2 4.1 6.8 5.9 1.5 1.7 3.2 5 3.8 7.3 0.7 2.9 1 14.7 0.7 35.3-0.3 24-0.7 31.6-1.7 33.5-0.8 1.4-2.8 3.8-4.5 5.3-1.7 1.5-7.7 5.8-13.3 9.5-5.5 3.7-15.2 9.6-21.4 13.2-6.2 3.6-14.9 8.4-19.3 10.7-4.5 2.4-8.8 4.3-9.6 4.3-0.8 0-7.8-3.8-15.5-8.5-7.7-4.7-17.8-10.9-22.5-14-4.7-3-12.9-7.9-18.2-11-7.1-4-10.1-6.3-10.9-8.3-0.7-1.8-0.9-14.3-0.7-37.2 0.2-19 0.7-35.2 1.1-36 0.4-0.8 5.3-4.9 11-9.1 5.6-4.2 16.5-11.3 24.2-15.9 7.7-4.6 15.3-9.4 17-10.6 1.7-1.3 5-3.2 7.5-4.4 3-1.4 5.8-1.9 8.5-1.7zm-23.5 29.3c-9.6 5.9-19.8 12.1-22.7 13.8-2.8 1.7-5.4 4-5.7 5.1-0.3 1.1-0.6 13.5-0.6 27.5 0 14 0.4 27.9 0.8 30.8 0.4 3.1 1.2 5.2 2 5.2 0.6 0 8.1 4.1 16.5 9.2 8.3 5 16.3 9.9 17.7 10.9 1.4 0.9 5.3 3.3 8.8 5.3l6.2 3.6c9.7-5.6 15.6-9.3 19.4-11.8 3.8-2.6 12.6-7.9 19.5-11.7l12.6-7c1-48.8 1.1-63.3 0.9-63.8-0.2-0.4-6.1-3.7-13.1-7.4-7.1-3.7-15-8.1-17.8-9.8-2.7-1.8-8.8-5.3-13.5-7.8-4.7-2.6-9.2-4.7-10.1-4.7-0.8 0-1.9 0.4-2.5 1-0.5 0.5-8.8 5.7-18.4 11.6zm138.3-9.5c0.4-0.1 1.2 1.1 1.8 2.6 0.7 1.9 0.9 20.2 0.7 55.8-0.3 44.8-0.5 53.4-1.8 55.8-0.8 1.5-1.9 2.8-2.5 2.8-0.6 0.1-1.7 0-2.5-0.1-0.8-0.1-4-2-7-4.1-3-2.2-8.9-6.2-20.5-13.8l-0.8-10.3c-0.4-5.7-0.4-23.8-0.1-40.3 0.6-28.7 0.8-30.1 2.8-32.3 1.1-1.3 5-4 8.6-6.1 3.6-2.1 8.5-4.9 11-6.1 2.4-1.3 5.6-2.7 7-3.1 1.4-0.4 2.8-0.8 3.2-0.8zm-18.3 26.9c-0.4 4.1-0.7 16.3-0.8 27 0 10.7 0.2 25.1 0.6 31.9 0.7 10.9 1 12.4 2.8 13.3 1.1 0.5 2.3 0.6 2.6 0.1 0.4-0.4 1-18.6 1.5-40.4 0.5-26.6 0.4-39.8-0.3-40.1-0.5-0.2-2.1-0.2-3.4 0.2-2.2 0.5-2.5 1.2-3 8zm-208.9-26c1.6 0 6.7 1.9 11.2 4.2 4.5 2.4 10.2 6.1 12.7 8.4 2.5 2.2 5.2 5.4 5.9 7 1 2.2 1.2 11.5 1 40-0.3 31.2-0.5 37.4-1.8 38.9-0.8 1-5.1 4.1-9.5 7-4.4 2.9-11 7.1-14.8 9.4-5 3.1-6.9 3.8-7.6 2.9-0.5-0.7-1.4-11.4-2-23.8-0.6-12.4-1.1-31.9-1.1-43.5 0-11.6 0.5-27.1 1-34.5 0.6-7.4 1.3-14.1 1.5-14.8 0.3-0.6 1.8-1.2 3.5-1.2zm8.5 62.3c-0.4 31.1-0.3 35.8 1 36.2 0.8 0.3 2.6-0.2 4-1l2.5-1.5c-0.5-73.9-0.6-75.2-2.5-76.6-1.1-0.8-2.3-1.4-2.7-1.4-0.3 0-0.9 1.9-1.2 4.2-0.4 2.4-0.8 20.4-1.1 40zm31.2 44.8c0.7 0 3.4 1.5 6.1 3.4 2.6 1.8 8.1 5.3 12.2 7.6 4.1 2.4 7.7 4.3 8 4.1 0.3-0.1 0.7 0.2 1 0.7 0.3 0.5 4.1 3.1 8.5 5.7 4.4 2.7 12.9 8.1 30 19.4l-0.3 17.3c-0.1 9.5-0.5 18.8-0.7 20.6-0.3 1.7-0.9 3.2-1.5 3.2-0.6 0-6.4-3.3-13-7.3-6.6-3.9-14.3-8.6-17-10.2-2.7-1.6-9.5-5.7-15-9-5.5-3.3-17.1-10.2-25.8-15.4-8.6-5.1-17.3-10.3-19.2-11.4-1.9-1.1-4.3-2.8-5.3-3.6-1-0.9-1.8-2.4-1.7-3.4 0-1 2.7-3.5 6.8-6.1 3.7-2.4 10.5-6.5 15.2-9.1 4.7-2.5 8.9-5 9.4-5.6 0.6-0.5 1.6-0.9 2.3-0.9zm-9.9 21.1c0.1 0.8 0.9 2.1 1.9 3 1 0.9 4.7 3.1 8.3 4.9 3.6 1.8 8.1 4.3 10 5.5 1.9 1.2 7.1 4.1 11.5 6.5 4.4 2.4 13.4 7.9 20 12.2 8.9 5.9 12.2 7.6 12.8 6.6 0.4-0.7 0.6-3.1 0.5-5.3-0.3-3.9-0.6-4.1-11.8-11.6-6.3-4.3-15.3-9.7-20-12.1-4.6-2.3-12.7-6.9-18-10-5.2-3.2-9.8-5.7-10.1-5.8-0.3 0-1.6 1-2.9 2.3-1.3 1.3-2.3 3-2.2 3.8zm156.4-21.1c1 0 2.6 0.9 3.5 1.9 1 1 4.3 3.3 7.3 5.1 3 1.8 7.3 4.6 9.5 6.4 2.2 1.7 5 4.2 6.2 5.6 1.2 1.4 2.3 3.2 2.3 4 0.1 0.8-2.3 3.3-5.2 5.6-2.9 2.3-13.3 8.9-23.1 14.7-9.7 5.9-17.8 10.7-18 10.7-0.1 0-4.5 2.4-9.7 5.3-5.2 2.9-12.2 7.1-15.5 9.2-3.3 2.2-9.6 5.9-14 8.2-4.4 2.4-8.9 4.3-10 4.3-1.7 0-2.1-0.8-2.6-5.7-0.3-3.2-0.3-12.5 0.6-35.8l3-1.4c1.7-0.8 9.1-5.1 16.5-9.6 7.4-4.5 17.1-10.4 21.5-13.2 4.4-2.7 12.1-7.3 17-10.1 4.9-2.8 9.8-5.2 10.7-5.2zm-18.5 27.2c-6.1 3.4-16.6 9.7-23.2 13.9-6.6 4.2-13.2 8.7-14.8 9.8-1.5 1.2-2.7 2.9-2.7 3.8 0 1 0.5 2.6 1.2 3.5 1.2 1.5 2.4 1 13.3-5.4 6.6-3.9 17.4-10.2 24-14.1 6.6-3.9 15.9-9 20.7-11.4 4.9-2.4 9-4.7 9.3-5.3 0.3-0.6-0.6-2.4-2-4-1.4-1.6-3.3-3-4.3-3-1 0-3.7 1.4-6 3-2.3 1.6-9.3 5.8-15.5 9.2zm-54.7-118.7c1.4 0.4 3.2 1.3 4 2 0.8 0.8 7.7 4.6 15.3 8.4 7.5 3.9 14.4 7.1 15.2 7.1 0.8 0 1.6 0.6 1.7 1.3 0.2 0.6 0.1 11.5-0.7 47.2l-3.5 1.1c-1.9 0.6-6.5 3-10.3 5.3-3.7 2.2-9.9 5.7-13.7 7.6-3.8 1.9-7.2 3.9-7.5 4.5-0.3 0.6-1.3 1-2.3 1-0.9-0.1-4.9-2.2-8.7-4.9-3.8-2.6-11-7-15.9-9.7-4.9-2.7-9.1-5.3-9.4-5.9-0.4-0.6-0.8-11.1-0.9-23.5-0.3-17.3-0.1-22.8 0.9-23.9 0.7-0.7 6-3.8 11.8-6.7 5.8-3 13-6.8 16-8.5 3.9-2.1 6.2-2.8 8-2.4zm-18.9 26.7l-3.1 1.8c-0.1 25.8 0.1 26.6 2.2 28.6 1.3 1.2 5.5 4 9.3 6.2 3.8 2.3 7.3 4.2 7.7 4.2 0.5 0 6-2.5 12.3-5.5l11.5-5.5v-27.5c-16.7-8.9-22.2-11.8-23.1-12-0.8-0.3-4.3 1.4-7.6 3.7-3.4 2.4-7.5 5.1-9.2 6z"/>
</svg>

<svg width="340" height="340" viewBox="0 0 340 340" fill="none" xmlns="http://www.w3.org/2000/svg">
<path fill-rule="evenodd" clip-rule="evenodd" d="M169 7.10001C169.8 7.10001 172.8 8.10001 175.5 9.30001C178.3 10.5 190 17.1 201.5 23.9C213.1 30.7 226.6 38.6 231.5 41.5C236.4 44.4 242.8 48 245.5 49.5C248.3 51 252.4 53.6 254.8 55.1C257.1 56.7 259.2 58 259.5 58C259.8 58 265.3 61.1 271.8 64.9C278.2 68.6 287.3 73.9 292 76.6C296.7 79.3 302.2 83.1 304.4 85C306.5 86.9 308.9 90.1 309.7 92C311 94.9 311.3 105.9 311.7 160C312 197.2 311.8 228.3 311.3 233.5C310.7 238.4 309.6 244.1 308.7 246C307.7 247.9 305.9 250.9 304.5 252.5C303.1 254.1 291 262.1 277.7 270.2C264.4 278.3 246.1 289.4 237 294.8C227.9 300.3 213.8 308.6 205.5 313.4C197.3 318.2 186.3 324.2 181.1 326.8C175.7 329.5 170.4 331.5 168.6 331.4C166.4 331.4 157.3 326.5 138.8 315.4C124.1 306.7 104.9 295.3 96.3 290.2C87.6 285.1 75.1 277.6 68.5 273.5C61.9 269.5 53.1 264.2 49 261.9C44.9 259.6 39.6 256.3 37.2 254.6C34.7 252.7 32.4 250 31.5 247.7C30.3 244.6 29.9 232.8 29.4 177.7C29.1 141.3 29.2 107.4 29.6 102.5C30.3 94.5 30.7 93 33.5 89.5C35.2 87.3 38.8 83.8 41.6 81.8C44.3 79.7 52.1 74.8 58.9 70.8C65.7 66.8 91.2 51.6 115.4 37.1C139.7 22.6 161.3 9.90001 163.5 8.90001C165.7 7.90001 168.2 7.10001 169 7.10001ZM147.5 34.7C143.7 36.9 134.4 42.5 127 47.2C119.6 51.8 107.4 59.2 100 63.5C92.6 67.8 82.5 73.8 77.5 76.8C72.5 79.9 63.2 85.5 56.8 89.4C47 95.4 45.1 97 44.5 99.5C44.2 101.2 43.7 116.7 43.4 134C43.1 151.3 43.2 182.4 43.5 203L44.1 240.5C53.7 247.6 67.3 256.1 80.5 264C93.7 271.9 106.3 279.5 108.5 281C110.7 282.5 114.5 284.8 117 286.2C119.5 287.6 124.9 290.8 129 293.2C133.1 295.7 142.6 301.3 150 305.7C157.4 310.1 164.8 314.5 166.5 315.3C169.5 316.9 169.6 316.8 184 308.7C192 304.1 206.2 296 215.5 290.6C224.9 285.1 240.4 275.8 250 269.9C259.6 264 271.7 256.5 276.8 253.3C282 250.1 288.1 246.1 290.3 244.5C292.8 242.6 295 240 295.7 238C296.6 235.4 296.9 216.2 296.9 165.5L297 96.5C281.1 87 271.9 81.4 266.3 78.1C260.6 74.7 255.8 72 255.5 72C255.2 72 248.7 68.2 241 63.5C233.3 58.8 226.8 55 226.5 55C226.2 55 220 51.6 212.8 47.4C205.5 43.2 195.9 37.6 191.5 34.9C187.1 32.3 183.2 30.1 182.8 30C182.3 30 179.5 28.4 176.5 26.5C173.5 24.6 170.4 22.8 169.7 22.5C169 22.2 165.3 23.9 161.5 26.3C157.6 28.7 151.3 32.5 147.5 34.7ZM160 40.2C162.4 40.5 162.5 40.8 163.3 51C163.7 56.8 163.9 65.3 163.5 78.5L158.7 81.5C156 83.2 148.8 87.8 142.7 91.8C136.5 95.8 127.7 101.4 123 104.2C118.3 107.1 110.9 111.8 98.5 120L88.5 114.8C83 112 75 107.2 70.7 104.3C66.5 101.4 63 98.4 63 97.7C62.9 97.1 64.4 95.3 66.2 93.9C68 92.5 72.9 89.3 77 86.8C81.1 84.3 90.8 78.8 98.5 74.5C106.2 70.2 115.2 65 118.5 63C121.8 60.9 128.1 57.2 132.5 54.8C136.9 52.3 144.3 48 149 45.1C154.5 41.7 158.4 40 160 40.2ZM121 78C107 86.4 94.8 93.5 94 93.8C93.2 94.1 90.7 95.5 88.5 96.8L84.5 99.2C88.4 102.2 91.2 103 93.5 103C96.3 103 99 102.1 102.5 99.9C105.3 98.1 115.6 91.7 125.5 85.7C135.4 79.6 145.9 73.4 148.8 71.8L154 69C154 60.6 153.6 59 152.7 59C152.1 59 150.4 59.9 149 60.9C147.6 61.9 135 69.6 121 78ZM178.3 40C179.5 40 184.8 42.4 190 45.2C195.2 48.1 208.1 55.5 218.5 61.8C228.9 68.1 242.9 76.3 249.5 80C256.1 83.6 263.3 87.7 265.5 89C267.7 90.2 271 92.4 272.8 93.9C274.6 95.3 276.1 96.9 276 97.5C276 98.1 273.1 100.3 269.7 102.4C266.3 104.6 260.4 108.1 256.5 110.3C252.6 112.4 248.4 115.2 247 116.5C245.6 117.9 243.8 119 243 119C242.2 119 239.3 117.5 236.5 115.6C233.8 113.8 228.4 110.6 224.5 108.5C220.6 106.4 212.8 101.7 207 98C201.2 94.3 192.9 89.4 188.5 87.2C184.1 85 179.3 82 175 78V60.5C175 50.9 175.3 42.3 175.6 41.5C175.9 40.7 177.1 40 178.3 40ZM188 67.5C188 69.6 189.7 71 199 76.5C205.1 80.1 210.2 83 210.5 83C210.8 83 214.5 85.4 218.8 88.2C223.1 91.1 231 95.7 236.3 98.5L245.9 103.5C250.2 100.2 251.6 98.5 251.8 97.6C251.9 96.5 249.4 94.8 242.8 91.7C237.7 89.3 228.3 84.2 222 80.3C215.7 76.5 205.7 70.8 199.8 67.7C191.5 63.4 188.9 62.5 188.5 63.6C188.2 64.4 188 66.1 188 67.5ZM170.5 91.3C172.7 91.6 177.4 93.4 181 95.5C184.6 97.6 188.8 100 190.5 101C192.2 101.9 197.3 105.1 202 108C206.7 110.9 213.4 114.9 217 116.8C220.6 118.7 225.3 121.5 227.5 123C229.7 124.5 232.7 127.1 234.3 128.9C235.8 130.6 237.5 133.9 238.1 136.2C238.8 139.1 239.1 150.9 238.8 171.5C238.5 195.5 238.1 203.1 237.1 205C236.3 206.4 234.3 208.8 232.6 210.3C230.9 211.8 224.9 216.1 219.3 219.8C213.8 223.5 204.1 229.4 197.9 233C191.7 236.6 183 241.4 178.6 243.7C174.1 246.1 169.8 248 169 248C168.2 248 161.2 244.2 153.5 239.5C145.8 234.8 135.7 228.6 131 225.5C126.3 222.5 118.1 217.6 112.8 214.5C105.7 210.5 102.7 208.2 101.9 206.2C101.2 204.4 101 191.9 101.2 169C101.4 150 101.9 133.8 102.3 133C102.7 132.2 107.6 128.1 113.3 123.9C118.9 119.7 129.8 112.6 137.5 108C145.2 103.4 152.8 98.6 154.5 97.4C156.2 96.1 159.5 94.2 162 93C165 91.6 167.8 91.1 170.5 91.3ZM147 120.6C137.4 126.5 127.2 132.7 124.3 134.4C121.5 136.1 118.9 138.4 118.6 139.5C118.3 140.6 118 153 118 167C118 181 118.4 194.9 118.8 197.8C119.2 200.9 120 203 120.8 203C121.4 203 128.9 207.1 137.3 212.2C145.6 217.2 153.6 222.1 155 223.1C156.4 224 160.3 226.4 163.8 228.4L170 232C179.7 226.4 185.6 222.7 189.4 220.2C193.2 217.6 202 212.3 208.9 208.5L221.5 201.5C222.5 152.7 222.6 138.2 222.4 137.7C222.2 137.3 216.3 134 209.3 130.3C202.2 126.6 194.3 122.2 191.5 120.5C188.8 118.7 182.7 115.2 178 112.7C173.3 110.1 168.8 108 167.9 108C167.1 108 166 108.4 165.4 109C164.9 109.5 156.6 114.7 147 120.6ZM285.3 111.1C285.7 111 286.5 112.2 287.1 113.7C287.8 115.6 288 133.9 287.8 169.5C287.5 214.3 287.3 222.9 286 225.3C285.2 226.8 284.1 228.1 283.5 228.1C282.9 228.2 281.8 228.1 281 228C280.2 227.9 277 226 274 223.9C271 221.7 265.1 217.7 253.5 210.1L252.7 199.8C252.3 194.1 252.3 176 252.6 159.5C253.2 130.8 253.4 129.4 255.4 127.2C256.5 125.9 260.4 123.2 264 121.1C267.6 119 272.5 116.2 275 115C277.4 113.7 280.6 112.3 282 111.9C283.4 111.5 284.8 111.1 285.2 111.1H285.3ZM267 138C266.6 142.1 266.3 154.3 266.2 165C266.2 175.7 266.4 190.1 266.8 196.9C267.5 207.8 267.8 209.3 269.6 210.2C270.7 210.7 271.9 210.8 272.2 210.3C272.6 209.9 273.2 191.7 273.7 169.9C274.2 143.3 274.1 130.1 273.4 129.8C272.9 129.6 271.3 129.6 270 130C267.8 130.5 267.5 131.2 267 138ZM58.1 112C59.7 112 64.8 113.9 69.3 116.2C73.8 118.6 79.5 122.3 82 124.6C84.5 126.8 87.2 130 87.9 131.6C88.9 133.8 89.1 143.1 88.9 171.6C88.6 202.8 88.4 209 87.1 210.5C86.3 211.5 82 214.6 77.6 217.5C73.2 220.4 66.6 224.6 62.8 226.9C57.8 230 55.9 230.7 55.2 229.8C54.7 229.1 53.8 218.4 53.2 206C52.6 193.6 52.1 174.1 52.1 162.5C52.1 150.9 52.6 135.4 53.1 128C53.7 120.6 54.4 113.9 54.6 113.2C54.9 112.6 56.4 112 58.1 112ZM66.6 174.3C66.2 205.4 66.3 210.1 67.6 210.5C68.4 210.8 70.2 210.3 71.6 209.5L74.1 208C73.6 134.1 73.5 132.8 71.6 131.4C70.5 130.6 69.3 130 68.9 130C68.6 130 68 131.9 67.7 134.2C67.3 136.6 66.9 154.6 66.6 174.2V174.3ZM97.8 219.1C98.5 219.1 101.2 220.6 103.9 222.5C106.5 224.3 112 227.8 116.1 230.1C120.2 232.5 123.8 234.4 124.1 234.2C124.4 234.1 124.8 234.4 125.1 234.9C125.4 235.4 129.2 238 133.6 240.6C138 243.3 146.5 248.7 163.6 260L163.3 277.3C163.2 286.8 162.8 296.1 162.6 297.9C162.3 299.6 161.7 301.1 161.1 301.1C160.5 301.1 154.7 297.8 148.1 293.8C141.5 289.9 133.8 285.2 131.1 283.6C128.4 282 121.6 277.9 116.1 274.6C110.6 271.3 99 264.4 90.3 259.2C81.7 254.1 73 248.9 71.1 247.8C69.2 246.7 66.8 245 65.8 244.2C64.8 243.3 64 241.8 64.1 240.8C64.1 239.8 66.8 237.3 70.9 234.7C74.6 232.3 81.4 228.2 86.1 225.6C90.8 223.1 95 220.6 95.5 220C96.1 219.5 97.1 219.1 97.8 219.1ZM87.9 240.2C88 241 88.8 242.3 89.8 243.2C90.8 244.1 94.5 246.3 98.1 248.1C101.7 249.9 106.2 252.4 108.1 253.6C110 254.8 115.2 257.7 119.6 260.1C124 262.5 133 268 139.6 272.3C148.5 278.2 151.8 279.9 152.4 278.9C152.8 278.2 153 275.8 152.9 273.6C152.6 269.7 152.3 269.5 141.1 262C134.8 257.7 125.8 252.3 121.1 249.9C116.5 247.6 108.4 243 103.1 239.9C97.9 236.7 93.3 234.2 93 234.1C92.7 234.1 91.4 235.1 90.1 236.4C88.8 237.7 87.8 239.4 87.9 240.2ZM244.3 219.1C245.3 219.1 246.9 220 247.8 221C248.8 222 252.1 224.3 255.1 226.1C258.1 227.9 262.4 230.7 264.6 232.5C266.8 234.2 269.6 236.7 270.8 238.1C272 239.5 273.1 241.3 273.1 242.1C273.2 242.9 270.8 245.4 267.9 247.7C265 250 254.6 256.6 244.8 262.4C235.1 268.3 227 273.1 226.8 273.1C226.7 273.1 222.3 275.5 217.1 278.4C211.9 281.3 204.9 285.5 201.6 287.6C198.3 289.8 192 293.5 187.6 295.8C183.2 298.2 178.7 300.1 177.6 300.1C175.9 300.1 175.5 299.3 175 294.4C174.7 291.2 174.7 281.9 175.6 258.6L178.6 257.2C180.3 256.4 187.7 252.1 195.1 247.6C202.5 243.1 212.2 237.2 216.6 234.4C221 231.7 228.7 227.1 233.6 224.3C238.5 221.5 243.4 219.1 244.3 219.1ZM225.8 246.3C219.7 249.7 209.2 256 202.6 260.2C196 264.4 189.4 268.9 187.8 270C186.3 271.2 185.1 272.9 185.1 273.8C185.1 274.8 185.6 276.4 186.3 277.3C187.5 278.8 188.7 278.3 199.6 271.9C206.2 268 217 261.7 223.6 257.8C230.2 253.9 239.5 248.8 244.3 246.4C249.2 244 253.3 241.7 253.6 241.1C253.9 240.5 253 238.7 251.6 237.1C250.2 235.5 248.3 234.1 247.3 234.1C246.3 234.1 243.6 235.5 241.3 237.1C239 238.7 232 242.9 225.8 246.3ZM171.1 127.6C172.5 128 174.3 128.9 175.1 129.6C175.9 130.4 182.8 134.2 190.4 138C197.9 141.9 204.8 145.1 205.6 145.1C206.4 145.1 207.2 145.7 207.3 146.4C207.5 147 207.4 157.9 206.6 193.6L203.1 194.7C201.2 195.3 196.6 197.7 192.8 200C189.1 202.2 182.9 205.7 179.1 207.6C175.3 209.5 171.9 211.5 171.6 212.1C171.3 212.7 170.3 213.1 169.3 213.1C168.4 213 164.4 210.9 160.6 208.2C156.8 205.6 149.6 201.2 144.7 198.5C139.8 195.8 135.6 193.2 135.3 192.6C134.9 192 134.5 181.5 134.4 169.1C134.1 151.8 134.3 146.3 135.3 145.2C136 144.5 141.3 141.4 147.1 138.5C152.9 135.5 160.1 131.7 163.1 130C167 127.9 169.3 127.2 171.1 127.6ZM152.2 154.3L149.1 156.1C149 181.9 149.2 182.7 151.3 184.7C152.6 185.9 156.8 188.7 160.6 190.9C164.4 193.2 167.9 195.1 168.3 195.1C168.8 195.1 174.3 192.6 180.6 189.6L192.1 184.1V156.6C175.4 147.7 169.9 144.8 169 144.6C168.2 144.3 164.7 146 161.4 148.3C158 150.7 153.9 153.4 152.2 154.3Z" fill="#3EADEC"/>
</svg>
